assets/icons/24px/stroke/truck-24px.svg

<svg width="24" height="24" viewBox="0 0 24 24" fill="none" xmlns="http://www.w3.org/2000/svg">
<path fill-rule="evenodd" clip-rule="evenodd" d="M6.93417 4C6.95604 4 6.97799 4 7 4H9C9.02202 4 9.04397 4 9.06583 4C9.95232 3.99995 10.7161 3.99991 11.3278 4.08215C11.9833 4.17028 12.6117 4.36902 13.1213 4.87868C13.631 5.38835 13.8297 6.0167 13.9179 6.67221C14.0001 7.28387 14.0001 8.04769 14 8.93417V12.0658C14.0001 12.9523 14.0001 13.7161 13.9179 14.3278C13.8297 14.9833 13.631 15.6117 13.1213 16.1213C12.6117 16.631 11.9833 16.8297 11.3278 16.9179C10.7161 17.0001 9.95232 17.0001 9.06584 17H6.93417C6.04769 17.0001 5.28387 17.0001 4.67221 16.9179C4.0167 16.8297 3.38835 16.631 2.87868 16.1213C2.36902 15.6117 2.17028 14.9833 2.08215 14.3278C1.99991 13.7161 1.99995 12.9523 2 12.0658L2 9C2 8.97799 2 8.95604 2 8.93417C1.99995 8.04769 1.99991 7.28387 2.08215 6.67221C2.17028 6.0167 2.36902 5.38835 2.87868 4.87868C3.38835 4.36902 4.0167 4.17028 4.67221 4.08215C5.28387 3.99991 6.04769 3.99995 6.93417 4ZM4.93871 6.06431C4.50497 6.12263 4.36902 6.21677 4.2929 6.2929C4.21677 6.36902 4.12263 6.50497 4.06431 6.93871C4.00213 7.40122 4 8.02893 4 9V12C4 12.9711 4.00213 13.5988 4.06431 14.0613C4.12263 14.495 4.21677 14.631 4.2929 14.7071C4.36902 14.7832 4.50497 14.8774 4.93871 14.9357C5.40121 14.9979 6.02893 15 7 15H9C9.97108 15 10.5988 14.9979 11.0613 14.9357C11.495 14.8774 11.631 14.7832 11.7071 14.7071C11.7832 14.631 11.8774 14.495 11.9357 14.0613C11.9979 13.5988 12 12.9711 12 12V9C12 8.02893 11.9979 7.40122 11.9357 6.93871C11.8774 6.50497 11.7832 6.36902 11.7071 6.2929C11.631 6.21677 11.495 6.12263 11.0613 6.06431C10.5988 6.00213 9.97108 6 9 6H7C6.02893 6 5.40122 6.00213 4.93871 6.06431Z" fill="white"/>
<path fill-rule="evenodd" clip-rule="evenodd" d="M17.3146 9.1002C17.1563 9.02341 16.9581 8.99989 15.9077 8.99989H14V11.9999C14 12.971 14.0021 13.5987 14.0643 14.0612C14.1226 14.4949 14.2168 14.6309 14.2929 14.707C14.369 14.7831 14.505 14.8773 14.9387 14.9356C15.4012 14.9978 16.0289 14.9999 17 14.9999H18.0296C18.4949 14.9999 18.7953 14.9994 19.0254 14.9841C19.2469 14.9695 19.3315 14.9444 19.3719 14.9282C19.6256 14.8265 19.8266 14.6255 19.9283 14.3718C19.9445 14.3314 19.9696 14.2467 19.9843 14.0253C19.9995 13.7952 20 13.4948 20 13.0295C20 12.6652 19.997 12.5935 19.9869 12.5319C19.9684 12.4186 19.9306 12.3094 19.875 12.2089C19.8448 12.1544 19.8028 12.0962 19.5773 11.81L18.2641 10.1433C17.614 9.31817 17.4729 9.17699 17.3146 9.1002ZM16.0703 6.9997C16.8599 6.9983 17.5616 6.99706 18.1877 7.30083C18.8137 7.60459 19.247 8.15658 19.7346 8.77766C19.7678 8.81998 19.8013 8.86262 19.8351 8.90553L21.1483 10.5723C21.16 10.5872 21.1717 10.6019 21.1832 10.6166C21.3548 10.834 21.506 11.0257 21.6249 11.2406C21.7917 11.5419 21.9053 11.8697 21.9608 12.2096C22.0004 12.4519 22.0002 12.6961 22 12.9731C22 12.9917 22 13.0105 22 13.0295V13.0605C22 13.4861 22 13.8533 21.9799 14.1575C21.9587 14.4776 21.9121 14.798 21.7848 15.1157C21.4799 15.8767 20.8768 16.4798 20.1158 16.7847C19.7981 16.912 19.4777 16.9586 19.1576 16.9798C18.8534 16.9999 18.4862 16.9999 18.0606 16.9999L16.9342 16.9999C16.0477 16.9999 15.2839 17 14.6722 16.9177C14.0167 16.8296 13.3883 16.6309 12.8787 16.1212C12.369 15.6115 12.1703 14.9832 12.0821 14.3277C11.9999 13.716 12 12.9522 12 12.0657C12 12.0439 12 12.0219 12 11.9999V6.99989H15.9077C15.9623 6.99989 16.0165 6.99979 16.0703 6.9997Z" fill="white"/>
<path fill-rule="evenodd" clip-rule="evenodd" d="M9 15H15V16C15 17.1046 15.8954 18 17 18C18.1046 18 19 17.1046 19 16H21C21 18.2091 19.2091 20 17 20C15.1362 20 13.5701 18.7252 13.126 17H10.874C10.4299 18.7252 8.86384 20 7 20C4.79086 20 3 18.2091 3 16H5C5 17.1046 5.89543 18 7 18C8.10457 18 9 17.1046 9 16V15Z" fill="white"/>
</svg>

<svg width="24" height="24" fill="none" xmlns="http://www.w3.org/2000/svg"><path fill-rule="evenodd" clip-rule="evenodd" d="M6.934 4H9.066c.886 0 1.65 0 2.262.082.655.088 1.284.287 1.793.797.51.51.709 1.138.797 1.793C14 7.284 14 8.048 14 8.934v3.132c0 .886 0 1.65-.082 2.262-.088.655-.287 1.284-.797 1.793-.51.51-1.138.709-1.793.797C10.716 17 9.952 17 9.066 17H6.934c-.886 0-1.65 0-2.262-.082-.655-.088-1.284-.287-1.793-.797-.51-.51-.709-1.138-.797-1.793C2 13.716 2 12.952 2 12.066V9v-.066c0-.886 0-1.65.082-2.262.088-.655.287-1.284.797-1.793.51-.51 1.138-.709 1.793-.797C5.284 4 6.048 4 6.934 4zM4.94 6.064c-.434.059-.57.153-.646.229-.076.076-.17.212-.229.646C4.002 7.4 4 8.029 4 9v3c0 .971.002 1.599.064 2.061.059.434.153.57.229.646.076.076.212.17.646.229C5.4 14.998 6.029 15 7 15h2c.971 0 1.599-.002 2.061-.064.434-.059.57-.153.646-.229.076-.076.17-.212.229-.646.062-.462.064-1.09.064-2.061V9c0-.971-.002-1.599-.064-2.061-.059-.434-.153-.57-.229-.646-.076-.076-.212-.17-.646-.229C10.6 6.002 9.971 6 9 6H7c-.971 0-1.599.002-2.061.064z" fill="#fff"/><path fill-rule="evenodd" clip-rule="evenodd" d="M17.315 9.1c-.159-.077-.357-.1-1.407-.1H14v3c0 .971.002 1.599.064 2.061.059.434.153.57.229.646.076.076.212.17.646.229.462.062 1.09.064 2.061.064h1.03c.465 0 .765 0 .995-.016.222-.014.306-.04.347-.056a1 1 0 0 0 .556-.556c.017-.04.042-.125.056-.347.015-.23.016-.53.016-.995 0-.365-.003-.436-.013-.498a1 1 0 0 0-.112-.323c-.03-.055-.072-.113-.298-.399l-1.313-1.667c-.65-.825-.791-.966-.95-1.043zM16.07 7c.79-.002 1.492-.003 2.118.3.626.305 1.059.857 1.547 1.478l.1.128 1.313 1.666.035.045c.172.217.323.409.442.624.167.3.28.629.336.969.04.242.04.486.039.763v.087c0 .426 0 .793-.02 1.098a3.07 3.07 0 0 1-.195.958 3 3 0 0 1-1.67 1.669 3.07 3.07 0 0 1-.957.195c-.305.02-.672.02-1.097.02h-1.127c-.886 0-1.65 0-2.262-.082-.655-.088-1.284-.287-1.793-.797-.51-.51-.709-1.138-.797-1.793C12 13.716 12 12.952 12 12.066V7h4.07z" fill="#fff"/><path fill-rule="evenodd" clip-rule="evenodd" d="M9 15h6v1a2 2 0 1 0 4 0h2a4 4 0 0 1-7.874 1h-2.252A4.002 4.002 0 0 1 3 16h2a2 2 0 1 0 4 0v-1z" fill="#fff"/></svg>
